assets/svgs/shopping-color/ShoppingColor12.svg

<svg xmlns="http://www.w3.org/2000/svg" data-name="Layer 3" viewBox="0 0 128 128"><path fill="#f8b72b" d="M30.517 46.78l9.184-16.837H89.83l7.653 16.837v51.277H30.517V46.78z"/><path fill="#f7c869" d="M47.47 29.943h-7.769L30.517 46.78v51.277h7.769V46.78l9.184-16.837z"/><path fill="#231f20" d="M98.88 46.164v-.017l-7.657-16.838a1.53 1.53 0 00-1.393-.9H39.7a1.53 1.53 0 00-1.344.8l-9.183 16.839c-.016.028-.022.061-.035.09s-.03.075-.045.114a1.521 1.521 0 00-.107.528v51.277a1.53 1.53 0 001.531 1.531h66.966a1.53 1.53 0 001.531-1.531V46.78a1.518 1.518 0 00-.134-.616zm-62.863-6.272h26.452v5.358H33.1zm29.513 0h27.14l2.435 5.357H65.531zm25.749-3.061H65.531v-5.357h23.314zM40.61 31.474h21.86v5.357H37.687zm-8.562 16.837h30.421v48.215H32.048zm33.483 48.215V48.311h30.421v48.215z"/><path fill="#231f20" d="M82.4 57.719a1.534 1.534 0 00-1.157-.574 1.557 1.557 0 00-1.185.516l-7.908 8.93a1.531 1.531 0 002.293 2.03l5.23-5.907v13.755a1.531 1.531 0 003.061 0V63.041l4.416 5.521a1.531 1.531 0 102.392-1.913z"/></svg>

<svg id="Layer_3" data-name="Layer 3" xmlns="http://www.w3.org/2000/svg" viewBox="0 0 128 128"><title>Artboard 108</title><polygon points="30.517 46.78 39.701 29.943 89.83 29.943 97.483 46.78 97.483 98.057 30.517 98.057 30.517 46.78" style="fill:#f8b72b"/><polygon points="47.47 29.943 39.701 29.943 30.517 46.78 30.517 98.057 38.286 98.057 38.286 46.78 47.47 29.943" style="fill:#f7c869"/><path d="M98.88,46.164c0-.006,0-.012,0-.017L91.223,29.309a1.53,1.53,0,0,0-1.393-.9H39.7a1.53,1.53,0,0,0-1.344.8L29.173,46.048c-.016.028-.022.061-.035.09s-.03.075-.045.114a1.521,1.521,0,0,0-.107.528V98.057a1.53,1.53,0,0,0,1.531,1.531H97.483a1.53,1.53,0,0,0,1.531-1.531V46.78A1.518,1.518,0,0,0,98.88,46.164ZM36.017,39.892H62.469V45.25H33.1Zm29.513,0h27.14l2.435,5.357H65.531Zm25.749-3.061H65.531V31.474H88.845ZM40.61,31.474h21.86v5.357H37.687ZM32.048,48.311H62.469V96.526H32.048ZM65.531,96.526V48.311H95.952V96.526Z" style="fill:#231f20"/><path d="M82.4,57.719a1.534,1.534,0,0,0-1.157-.574,1.557,1.557,0,0,0-1.185.516l-7.908,8.93a1.531,1.531,0,0,0,2.293,2.03l5.23-5.907V76.469a1.531,1.531,0,0,0,3.061,0V63.041l4.416,5.521a1.531,1.531,0,1,0,2.392-1.913Z" style="fill:#231f20"/></svg>
